!!!COM: Bach, Johann Sebastian
!!!OTL: Ich hab' mein' Sach' Gott heimgestellt
!!!ONM: No. 19
!!!OCL: Erk
!!!YOE: Riemenschneider, Albert
!!!OPR: 371 Harmonized Chorales and 69 Chorale Melodies with Figured Bass
!!!OPT: Bach Chorale Harmonizations
**kern	**kern	**kern	**kern
! bass	! tenor	! alto	! soprano
*M4/4	*M4/4	*M4/4	*M4/4
*g:	*g:	*g:	*g:
4G	4B-	4d	4g
=1	=1	=1	=1
8G	8B-	4d	4g
8F	8A	.	.
4E-	4G	8d	4g
.	.	8c#	.
8D	4A	4d	4f#
8Cn	.	.	.
8BB-	4d	8g	4b-
8GG	.	8fn	.
=2	=2	=2	=2
4C	4c	8e-	4a
.	.	8d	.
4C#	8B-	4en	4g
.	8A	.	.
4D;	4A;	4d;	4f#;
8D	4A	4d	4f#
[8E-	.	.	.
=3	=3	=3	=3
8E-]	4A	4c	4f#
[8D	.	.	.
8D]	4A	4d	4f#
[8Cn	.	.	.
8C]	4G	4d	4g
8BBn	.	.	.
8C	4G	4c	4e
8BB-	.	.	.
=4	=4	=4	=4
4AA	8A	8c	4f#
.	8c	8e-	.
4D	8c	4d	4f#
.	16B-	.	.
.	16A	.	.
4GG;	4B-;	4d;	4g;
4F	4c	4fn	4a
=5	=5	=5	=5
8F	4c	4f	4a
8G	.	.	.
8F	4c	4g	4cc
8En	.	.	.
8F	4c	4f	4a
[8E-	.	.	.
8E-]	4B-	4f	4f
8D	.	.	.
=6	=6	=6	=6
8E-	4B-	8e-	4g
8En	.	8d	.
8F	8A	8c	4a
8F#	8c	8e-	.
4G;	4B-;	4d;	4b-;
4GG	4d	[4g	4b-
=7	=7	=7	=7
4D	[4d	8g]	4a
.	.	8f#	.
4E-	8d]	8g	4g
.	8c	8G	.
4D;	4A;	4d;	4f#;
4D	4A	4d	4f#
=8	=8	=8	=8
8AA	4A	8c	4f#
8BB-	.	8d	.
4C	4A	8e-	4f#
.	.	8d	.
8BB-	[4G	4d	4g
8BBn	.	.	.
8C	16G]	4en	4en
.	16A	.	.
8C#	8B-	.	.
=9	=9	=9	=9
4D	8A	4d	4f#
.	8G	.	.
4DD	16A	4d	4f#
.	16B-	.	.
.	8cn	.	.
4GG;	8c	4d;	4g;
.	8Bn;	.	.
==	==	==	==
*-	*-	*-	*-
!!!CDT: 1685/3//-1750/7/28
!!!OCY: Deutschland
!!!AGN: chorale
!!!AST: Baroque
!!!AIN: vox
!!!YOY: 1941
!!!PPP: New York; London
!!!PPR: G. Schirmer
!!!ENC: David Huron
!!!EED: David Huron
!!!YEN: United States of America
!!!YER: 1992
!!!YEC: Copyright 1992 David Huron
!!!YEM: Rights to all derivative electronic formats reserved.
!!!YER: March 20, 1996
!!!AMT: simple quadruple
!!!EEV: 1.1
